X: 9168
T: Dálaigh's
R: polka
M: 2/4
K: Dmajor
E>F GA|Be dB|A>B AF|EF D2|
E>F GA|Be dB|AF dF|FE ED:|
Be e d/e/|f>e dB|Be e d/e/|f>e d2|
Be e d/e/|f>e dB|AF dF|FE E2:|

